X:260
T: IST WIEDER EINS AUS
N: E0857
O: Europa, Mitteleuropa, Deutschland, Westerwald; Hessen, Dillkreis
R: Hochzeits -, Ehestands - Lied
M: 3/8
L: 1/8
K: G
d | dce | A2c | cBd | G2
B | BAA | cFF | AGG | G2

@@@ Tune index: 4573
